assets/svg/networks/wallet_kusama.svg

<svg width="36" height="36" viewBox="0 0 36 36" fill="none" xmlns="http://www.w3.org/2000/svg">
<g clip-path="url(#clip0_52314_201703)">
<rect width="36" height="36" rx="10" fill="#0E0E0E"/>
<g clip-path="url(#clip1_52314_201703)">
<path d="M28.5987 10.748C28.2387 10.476 27.8076 10.105 27.0226 10.0119C26.2865 9.91894 25.5365 10.39 25.0294 10.702C24.5224 11.014 23.5643 11.9291 23.1683 12.2071C22.7723 12.4861 21.7582 12.7452 20.1261 13.6802C18.4939 14.6153 12.0905 18.5406 12.0905 18.5406L13.7576 18.5606L6.32702 22.2159H7.06908L6 22.9919C6 22.9919 6.94407 23.2309 7.73613 22.7529V22.9719C7.73613 22.9719 16.5838 19.6417 18.2929 20.5047L17.2508 20.7958C17.3409 20.7958 19.021 20.9028 19.021 20.9028C19.021 20.9028 19.077 21.9038 20.0911 22.5469C21.1051 23.1839 21.1261 23.536 21.1261 23.536C21.1261 23.536 20.5981 23.741 20.5981 24C20.5981 24 21.3762 23.774 22.0982 23.794C22.8203 23.814 23.4523 24 23.4523 24C23.4523 24 23.3973 23.721 22.6953 23.536C21.9872 23.343 21.3002 22.6199 20.9591 22.2219C20.7518 21.973 20.6159 21.6726 20.5659 21.3526C20.5159 21.0326 20.5536 20.705 20.6751 20.4047C20.9181 19.8017 21.7652 19.4697 23.5153 18.6076C25.5775 17.5855 26.0505 16.8295 26.3415 16.2394C26.6336 15.6494 27.0636 14.4753 27.3076 13.9242C27.6126 13.2142 27.9877 12.8362 28.3007 12.6111C28.6057 12.3851 30.0018 11.8881 30.0018 11.8881C30.0018 11.8881 28.9387 11.006 28.5987 10.748Z" fill="white"/>
</g>
</g>
<defs>
<clipPath id="clip0_52314_201703">
<rect width="36" height="36" fill="white"/>
</clipPath>
<clipPath id="clip1_52314_201703">
<rect width="24" height="24" fill="white" transform="translate(6 6)"/>
</clipPath>
</defs>
</svg>

<svg xmlns="http://www.w3.org/2000/svg" width="36" height="36" fill="none"><g clip-path="url(#a)"><rect width="36" height="36" fill="#0E0E0E" rx="10"/><g clip-path="url(#b)"><path fill="#fff" d="M28.599 10.748c-.36-.272-.791-.643-1.576-.736-.736-.093-1.486.378-1.994.69-.507.312-1.465 1.227-1.86 1.505-.397.28-1.41.538-3.043 1.473-1.632.935-8.036 4.86-8.036 4.86l1.668.02-7.431 3.656h.742L6 22.992s.944.239 1.736-.24v.22s8.848-3.33 10.557-2.467l-1.042.29c.09 0 1.77.108 1.77.108s.056 1 1.07 1.644c1.014.637 1.035.989 1.035.989s-.528.205-.528.464c0 0 .778-.226 1.5-.206s1.354.206 1.354.206-.055-.279-.757-.464c-.708-.193-1.395-.916-1.736-1.314a1.79 1.79 0 0 1-.284-1.817c.243-.603 1.09-.935 2.84-1.797 2.063-1.023 2.535-1.779 2.826-2.369.293-.59.723-1.764.967-2.315.305-.71.68-1.088.993-1.313.305-.226 1.7-.723 1.7-.723s-1.062-.882-1.402-1.14"/></g></g><defs><clipPath id="a"><path fill="#fff" d="M0 0h36v36H0z"/></clipPath><clipPath id="b"><path fill="#fff" d="M6 6h24v24H6z"/></clipPath></defs></svg>
